X: 1
T:Condon's Frolics (2nd Setting)
M:6/8
L:1/8
Q:80
C:Arranged by T. Tully
S:Jig
K:HP
{g}eAB{g}"flatc"c2d|
{g}ed"flatc"c{g}BAG|
eAB{g}"flatc"c2d|  !
{gef}e2d{g}ea{g}a{g}eAB{g}"flatc"c2d|
{g}ed"flatc"cB{e}B{G}B|
{g}GBdgdB|  !
{g}A{d}A{e}A{gAGAG}A3:|
d|
{g}ea{g}aef{e}f|
{g}"flatc"cd{c}dBAG|  !
{g}"flatc"cB"flatc"c{g}d"flatc"cd|
{gef}e2d{g}efg{g}ea{g}aef{e}f|
{g}"flatc"cd{c}dB{e}B{G}B|  !
{g}GBdgdB|
{g}A{d}A{e}A{gAGAG}A3:|
